svgs/whatsapp_business.svg

<svg width="192" height="192" viewBox="0 0 192 192" fill="none" xmlns="http://www.w3.org/2000/svg"><path d="m60.359 160.867 2.894-5.256a6.003 6.003 0 0 0-4.284-.581l1.39 5.837ZM22 170l-5.837-1.39a6.002 6.002 0 0 0 7.227 7.227L22 170Zm9.133-38.359 5.837 1.39a6.001 6.001 0 0 0-.581-4.284l-5.256 2.894ZM96 176c44.183 0 80-35.817 80-80h-12c0 37.555-30.445 68-68 68v12Zm-38.535-9.877C68.9 172.42 82.04 176 96 176v-12c-11.884 0-23.04-3.043-32.747-8.389l-5.788 10.512Zm-34.075 9.714 38.358-9.133-2.78-11.674-38.358 9.133 2.78 11.674Zm1.906-45.585-9.133 38.358 11.674 2.78 9.133-38.359-11.674-2.779ZM16 96c0 13.959 3.58 27.1 9.877 38.535l10.512-5.788C31.043 119.039 28 107.884 28 96H16Zm80-80c-44.183 0-80 35.817-80 80h12c0-37.555 30.445-68 68-68V16Zm80 80c0-44.183-35.817-80-80-80v12c37.555 0 68 30.445 68 68h12Z" fill="#000"/><path d="M103 130H76V96h27c9.389 0 17 7.611 17 17s-7.611 17-17 17Zm-2-34H76V62h25c9.389 0 17 7.611 17 17s-7.611 17-17 17Z" stroke="#000" stroke-width="12" stroke-linejoin="round"/></svg>

<?xml version="1.0" encoding="UTF-8" standalone="no"?><svg xmlns:android="http://schemas.android.com/apk/res/android" height="192" width="192" xmlns="http://www.w3.org/2000/svg">
  <path d="M60.359,160.867L63.253,155.611C61.946,154.892 60.419,154.685 58.969,155.03L60.359,160.867ZM22,170L16.163,168.61C15.681,170.637 16.284,172.769 17.757,174.243C19.231,175.716 21.363,176.319 23.39,175.837L22,170ZM31.133,131.641L36.97,133.031C37.315,131.581 37.108,130.054 36.389,128.747L31.133,131.641ZM96,176C140.183,176 176,140.183 176,96H164C164,133.555 133.555,164 96,164V176ZM57.465,166.123C68.9,172.42 82.041,176 96,176V164C84.116,164 72.961,160.957 63.253,155.611L57.465,166.123ZM23.39,175.837L61.748,166.704L58.969,155.03L20.61,164.163L23.39,175.837ZM25.296,130.252L16.163,168.61L27.837,171.39L36.97,133.031L25.296,130.252ZM16,96C16,109.959 19.58,123.1 25.877,134.535L36.389,128.747C31.044,119.039 28,107.884 28,96H16ZM96,16C51.817,16 16,51.817 16,96H28C28,58.445 58.445,28 96,28V16ZM176,96C176,51.817 140.183,16 96,16V28C133.555,28 164,58.445 164,96H176Z" fill="#000000"/>
  <path d="M103,130H76V96H103C112.389,96 120,103.611 120,113C120,122.389 112.389,130 103,130Z" fill="#000000" fill-opacity="0.0" stroke="#000000" stroke-linejoin="round" stroke-width="12"/>
  <path d="M101,96H76V62H101C110.389,62 118,69.611 118,79C118,88.389 110.389,96 101,96Z" fill="#000000" fill-opacity="0.0" stroke="#000000" stroke-linejoin="round" stroke-width="12"/>
</svg>
